assets/universal-access.svg

<?xml version="1.0" encoding="UTF-8" standalone="no"?>
<svg
   width="500"
   zoomAndPan="magnify"
   viewBox="0 0 375 374.99999"
   height="500"
   preserveAspectRatio="xMidYMid"
   version="1.2"
   id="svg6"
   sodipodi:docname="universal-access.svg"
   xmlns:inkscape="http://www.inkscape.org/namespaces/inkscape"
   xmlns:sodipodi="http://sodipodi.sourceforge.net/DTD/sodipodi-0.dtd"
   xmlns="http://www.w3.org/2000/svg"
   xmlns:svg="http://www.w3.org/2000/svg">
  <sodipodi:namedview
     id="namedview6"
     pagecolor="#ffffff"
     bordercolor="#000000"
     borderopacity="0.25"
     inkscape:showpageshadow="2"
     inkscape:pageopacity="0.0"
     inkscape:pagecheckerboard="0"
     inkscape:deskcolor="#d1d1d1">
    <inkscape:page
       x="0"
       y="0"
       width="375"
       height="375"
       id="page2"
       margin="0"
       bleed="0" />
  </sodipodi:namedview>
  <defs
     id="defs1">
    <clipPath
       id="2c233b1cc6">
      <path
         d="m 110.43359,87.898438 h 154.5 V 287 h -154.5 z m 0,0"
         id="path1" />
    </clipPath>
  </defs>
  <g
     id="eb8634abae">
    <g
       style="fill:'currentColor';fill-opacity:1"
       id="g3">
      <g
         transform="translate(-41.362958,319.91576)"
         id="g2">
        <path
           style="stroke:none"
           d="M 103.73438,0 C 88.859375,0 77.289062,-5.59375 69.03125,-16.78125 c -5.59375,-7.625 -8.390625,-16.140625 -8.390625,-25.546875 0,-4.320313 0.570313,-8.835937 1.71875,-13.546875 l 9.53125,-37.1875 c 0.382813,-1.519531 0.578125,-2.976562 0.578125,-4.375 0,-3.17578 -0.960938,-6.03516 -2.875,-8.57813 -2.792969,-3.6875 -6.667969,-5.53125 -11.625,-5.53125 -0.125,0 -0.25,0 -0.375,0 -4.585938,0 -8.273438,-1.84375 -11.0625,-5.53125 -1.90625,-2.53906 -2.859375,-5.40625 -2.859375,-8.59375 0,-1.39453 0.1875,-2.91406 0.5625,-4.56249 1.269531,-4.95704 4.222656,-9.28125 8.859375,-12.96875 4.644531,-3.6875 9.445312,-5.53125 14.40625,-5.53125 h 0.953125 c 4.320313,0 8.644531,-1.71875 12.96875,-5.15625 4.957031,-3.9375 8.132813,-8.44532 9.53125,-13.53125 l 9.734375,-37.1875 c 3.8125,-14.875 12.70703,-27.875 26.6875,-39 13.98828,-11.125 28.42187,-16.6875 43.29687,-16.6875 4.95704,0 8.83204,1.84375 11.625,5.53125 1.90625,2.54296 2.85938,5.40625 2.85938,8.59375 0,1.39843 -0.1875,2.85546 -0.5625,4.375 -1.27344,4.96093 -4.29297,9.3125 -9.0625,13.0625 -4.77344,3.75 -9.63672,5.625 -14.59375,5.625 -4.96094,0 -9.72656,1.84375 -14.29688,5.53125 -4.57421,3.6875 -7.49609,8.01171 -8.76562,12.96875 l -9.73438,37.1875 c -3.81249,14.875 -12.71093,27.90625 -26.68749,39.09375 6.22656,5.96874 9.34375,13.46874 9.34375,22.49999 0,3.9375 -0.57422,8.195318 -1.71875,12.76563 l -9.531255,37.1875 c -0.386719,1.53125 -0.578125,3.058594 -0.578125,4.578125 0.125,3.179687 1.07813,6.039063 2.85938,8.578125 2.66406,3.6875 6.35156,5.53125 11.0625,5.53125 0.125,0 0.25,0 0.375,0 4.95703,0 8.83593,1.84375 11.64062,5.53125 1.90625,2.542969 2.85938,5.402344 2.85938,8.578125 0,1.40625 -0.19532,2.871094 -0.57813,4.390625 -1.27344,4.960938 -4.26172,9.3125 -8.96875,13.0625 C 113.51953,-1.875 108.69141,0 103.73438,0 Z m 0,0"
           id="path2" />
      </g>
    </g>
    <g
       style="fill:'currentColor';fill-opacity:1"
       id="g5">
      <g
         transform="translate(187.44412,319.91576)"
         id="g4">
        <path
           style="stroke:none"
           d="m 125.09375,-259.90625 c 14.875,0 26.44141,5.59375 34.70312,16.78125 5.59375,7.625 8.39063,16.14063 8.39063,25.54688 0,4.32421 -0.57422,8.83984 -1.71875,13.54687 l -9.53125,37.17188 c -0.38672,1.53125 -0.57813,2.99609 -0.57813,4.39062 0,3.17969 0.95313,6.03906 2.85938,8.57813 2.80078,3.6875 6.67969,5.53125 11.64062,5.53125 4.83204,0 8.64454,1.90625 11.4375,5.71875 1.90625,2.54296 2.85938,5.33984 2.85938,8.39062 0,1.40625 -0.1875,2.93359 -0.5625,4.57813 -1.27344,4.96093 -4.23047,9.28124 -8.875,12.96874 -4.63672,3.6875 -9.43359,5.53125 -14.39063,5.53125 H 160.375 c -4.32422,0 -8.64844,1.71875 -12.96875,5.15625 -4.96094,3.9375 -8.13672,8.449224 -9.53125,13.531255 l -9.73438,37.1875 c -3.81249,14.875 -12.71484,27.875 -26.70312,39 C 87.457031,-5.179688 73.03125,0.375 58.15625,0.375 c -4.960938,0 -8.835938,-1.84375 -11.625,-5.53125 -1.90625,-2.539062 -2.859375,-5.398438 -2.859375,-8.578125 0,-1.394531 0.1875,-2.851563 0.5625,-4.375 1.269531,-4.957031 4.289063,-9.3125 9.0625,-13.0625 4.769531,-3.75 9.632813,-5.625 14.59375,-5.625 4.957031,0 9.722656,-1.84375 14.296875,-5.53125 4.570312,-3.6875 7.492188,-8.007813 8.765625,-12.96875 l 9.734375,-37.1875 c 3.8125,-14.875005 12.70703,-27.906255 26.6875,-39.093745 -6.23047,-5.96875 -9.34375,-13.46875 -9.34375,-22.5 0,-3.9375 0.57031,-8.19532 1.71875,-12.78125 l 9.53125,-37.17188 c 0.38281,-1.53125 0.57812,-3.05469 0.57812,-4.57812 -0.125,-3.05079 -1.07812,-5.84766 -2.85937,-8.39063 -2.80469,-3.8125 -6.61719,-5.71875 -11.4375,-5.71875 -4.96094,0 -8.83984,-1.84375 -11.64062,-5.53125 -1.90625,-2.53906 -2.85938,-5.39844 -2.85938,-8.57812 0,-1.40625 0.19141,-2.86719 0.57813,-4.39063 1.26953,-4.95703 4.2539,-9.3125 8.95312,-13.0625 4.70703,-3.75 9.53906,-5.625 14.5,-5.625 z m 0,0"
           id="path3" />
      </g>
    </g>
    <g
       clip-rule="nonzero"
       clip-path="url(#2c233b1cc6)"
       id="g6">
      <path
         style="fill:'currentColor';fill-opacity:1;fill-rule:nonzero;stroke:none"
         d="m 187.23828,87.902344 c -12.11719,0.246094 -21.81641,10.128906 -21.81641,22.238286 0,12.28906 9.95704,22.24609 22.25782,22.24609 12.30078,0 22.2539,-9.96484 22.2539,-22.24609 0.008,-12.277349 -9.95312,-22.238286 -22.25,-22.238286 -0.15234,0 -0.29297,0 -0.44531,0 z m -66.82031,26.996096 c -2.85156,0.0469 -5.65625,1.29297 -7.59766,3.58984 -0.79297,0.9336 -1.375,1.98047 -1.76953,3.07813 -0.39062,1.09375 -0.5664,2.24218 -0.5625,3.38672 0,1.15234 0.19922,2.30859 0.59766,3.40234 0.39844,1.08984 0.99219,2.13281 1.78515,3.0625 0.36719,0.42578 0.75,0.80469 1.16407,1.15234 0.4375,0.3711 0.88281,0.74219 1.35547,1.02735 0,0 0.004,0 0.008,0.008 13.33203,7.83594 27.57812,14.07031 42.40234,18.48047 2.19531,0.65625 4.42969,1.17578 6.65625,1.7539 v 43.4375 c -4.0625,9.01953 -7.9375,18.1211 -11.51562,27.35157 -5.91016,15.23437 -11.07422,30.75 -15.61719,46.4375 -0.004,0.0156 -0.004,0.0273 -0.008,0.0351 l -0.0195,0.0547 c -0.0156,0.0352 -0.0391,0.0664 -0.0508,0.10156 0,0.0117 0,0.0117 0,0.0195 -1.98437,5.82032 1.14453,12.17188 6.96875,14.15235 5.82422,1.97656 12.16797,-1.15235 14.14844,-6.97657 0.0937,-0.28125 0.19922,-0.58203 0.27344,-0.91015 4.3789,-15.16406 9.42969,-30.13672 15.1289,-44.85156 2.80469,-7.22657 5.82813,-14.36719 8.94922,-21.46875 h 9.9336 c 3.11718,7.09765 6.14843,14.23828 8.94531,21.46875 5.70703,14.71484 10.75391,29.6875 15.125,44.85156 0.082,0.32812 0.17578,0.6289 0.27734,0.91015 1.97657,5.82422 8.32422,8.95313 14.15235,6.97657 5.82422,-1.97266 8.94531,-8.33203 6.96875,-14.15235 0,-0.008 0,-0.008 0,-0.0195 -0.0156,-0.0391 -0.0352,-0.0703 -0.0508,-0.10156 l -0.0234,-0.0547 c -0.004,-0.008 -0.004,-0.0195 -0.008,-0.0351 -4.54297,-15.6875 -9.70313,-31.20704 -15.61719,-46.4375 -3.57031,-9.23047 -7.44922,-18.33204 -11.51563,-27.35157 v -43.4375 c 2.22657,-0.57031 4.45313,-1.09765 6.66016,-1.7539 14.82031,-4.41016 29.07422,-10.64453 42.40625,-18.48047 v -0.008 c 0.47266,-0.28125 0.92187,-0.65235 1.35547,-1.01954 0.41797,-0.34765 0.79687,-0.73046 1.16797,-1.15234 0.78906,-0.93359 1.38672,-1.97266 1.78125,-3.0625 0.40234,-1.09765 0.59765,-2.25781 0.59765,-3.40234 0.004,-1.14453 -0.16797,-2.28516 -0.5625,-3.38672 -0.38281,-1.10547 -0.97265,-2.15234 -1.76562,-3.08594 -3.10156,-3.66797 -8.41406,-4.67969 -12.60547,-2.32031 -0.008,0 -0.0156,0.008 -0.0234,0.0156 -0.0117,0.008 -0.0195,0.0156 -0.0312,0.0195 -11.94922,7.03515 -24.75781,12.66015 -38.05469,16.62109 -5.91406,1.75781 -11.9375,3.08594 -18,4.18359 H 181.5351 c -6.0625,-1.09765 -12.08985,-2.42578 -18,-4.18359 -13.30469,-3.96875 -26.10157,-9.58594 -38.0586,-16.62109 -0.008,-0.004 -0.0195,-0.0117 -0.0273,-0.0195 -0.008,-0.004 -0.0156,-0.008 -0.0273,-0.0156 -1.56641,-0.88672 -3.29297,-1.29297 -5.00391,-1.26953 z m 0,0"
         id="path5" />
    </g>
  </g>
</svg>

<svg xmlns="http://www.w3.org/2000/svg" xmlns:xlink="http://www.w3.org/1999/xlink" width="500" zoomAndPan="magnify" viewBox="0 0 375 374.999991" height="500" preserveAspectRatio="xMidYMid meet" version="1.2"><defs><clipPath id="2c233b1cc6"><path d="M 110.433594 87.898438 L 264.933594 87.898438 L 264.933594 287 L 110.433594 287 Z M 110.433594 87.898438 "/></clipPath></defs><g id="eb8634abae"><g style="fill:#000000;fill-opacity:1;"><g transform="translate(-41.362958, 319.91576)"><path style="stroke:none" d="M 103.734375 0 C 88.859375 0 77.289062 -5.59375 69.03125 -16.78125 C 63.4375 -24.40625 60.640625 -32.921875 60.640625 -42.328125 C 60.640625 -46.648438 61.210938 -51.164062 62.359375 -55.875 L 71.890625 -93.0625 C 72.273438 -94.582031 72.46875 -96.039062 72.46875 -97.4375 C 72.46875 -100.613281 71.507812 -103.472656 69.59375 -106.015625 C 66.800781 -109.703125 62.925781 -111.546875 57.96875 -111.546875 C 57.84375 -111.546875 57.71875 -111.546875 57.59375 -111.546875 C 53.007812 -111.546875 49.320312 -113.390625 46.53125 -117.078125 C 44.625 -119.617188 43.671875 -122.484375 43.671875 -125.671875 C 43.671875 -127.066406 43.859375 -128.585938 44.234375 -130.234375 C 45.503906 -135.191406 48.457031 -139.515625 53.09375 -143.203125 C 57.738281 -146.890625 62.539062 -148.734375 67.5 -148.734375 L 68.453125 -148.734375 C 72.773438 -148.734375 77.097656 -150.453125 81.421875 -153.890625 C 86.378906 -157.828125 89.554688 -162.335938 90.953125 -167.421875 L 100.6875 -204.609375 C 104.5 -219.484375 113.394531 -232.484375 127.375 -243.609375 C 141.363281 -254.734375 155.796875 -260.296875 170.671875 -260.296875 C 175.628906 -260.296875 179.503906 -258.453125 182.296875 -254.765625 C 184.203125 -252.222656 185.15625 -249.359375 185.15625 -246.171875 C 185.15625 -244.773438 184.96875 -243.316406 184.59375 -241.796875 C 183.320312 -236.835938 180.300781 -232.484375 175.53125 -228.734375 C 170.757812 -224.984375 165.894531 -223.109375 160.9375 -223.109375 C 155.976562 -223.109375 151.210938 -221.265625 146.640625 -217.578125 C 142.066406 -213.890625 139.144531 -209.566406 137.875 -204.609375 L 128.140625 -167.421875 C 124.328125 -152.546875 115.429688 -139.515625 101.453125 -128.328125 C 107.679688 -122.359375 110.796875 -114.859375 110.796875 -105.828125 C 110.796875 -101.890625 110.222656 -97.632812 109.078125 -93.0625 L 99.546875 -55.875 C 99.160156 -54.34375 98.96875 -52.816406 98.96875 -51.296875 C 99.09375 -48.117188 100.046875 -45.257812 101.828125 -42.71875 C 104.492188 -39.03125 108.179688 -37.1875 112.890625 -37.1875 C 113.015625 -37.1875 113.140625 -37.1875 113.265625 -37.1875 C 118.222656 -37.1875 122.101562 -35.34375 124.90625 -31.65625 C 126.8125 -29.113281 127.765625 -26.253906 127.765625 -23.078125 C 127.765625 -21.671875 127.570312 -20.207031 127.1875 -18.6875 C 125.914062 -13.726562 122.925781 -9.375 118.21875 -5.625 C 113.519531 -1.875 108.691406 0 103.734375 0 Z M 103.734375 0 "/></g></g><g style="fill:#000000;fill-opacity:1;"><g transform="translate(187.444121, 319.91576)"><path style="stroke:none" d="M 125.09375 -259.90625 C 139.96875 -259.90625 151.535156 -254.3125 159.796875 -243.125 C 165.390625 -235.5 168.1875 -226.984375 168.1875 -217.578125 C 168.1875 -213.253906 167.613281 -208.738281 166.46875 -204.03125 L 156.9375 -166.859375 C 156.550781 -165.328125 156.359375 -163.863281 156.359375 -162.46875 C 156.359375 -159.289062 157.3125 -156.429688 159.21875 -153.890625 C 162.019531 -150.203125 165.898438 -148.359375 170.859375 -148.359375 C 175.691406 -148.359375 179.503906 -146.453125 182.296875 -142.640625 C 184.203125 -140.097656 185.15625 -137.300781 185.15625 -134.25 C 185.15625 -132.84375 184.96875 -131.316406 184.59375 -129.671875 C 183.320312 -124.710938 180.363281 -120.390625 175.71875 -116.703125 C 171.082031 -113.015625 166.285156 -111.171875 161.328125 -111.171875 L 160.375 -111.171875 C 156.050781 -111.171875 151.726562 -109.453125 147.40625 -106.015625 C 142.445312 -102.078125 139.269531 -97.566406 137.875 -92.484375 L 128.140625 -55.296875 C 124.328125 -40.421875 115.425781 -27.421875 101.4375 -16.296875 C 87.457031 -5.179688 73.03125 0.375 58.15625 0.375 C 53.195312 0.375 49.320312 -1.46875 46.53125 -5.15625 C 44.625 -7.695312 43.671875 -10.554688 43.671875 -13.734375 C 43.671875 -15.128906 43.859375 -16.585938 44.234375 -18.109375 C 45.503906 -23.066406 48.523438 -27.421875 53.296875 -31.171875 C 58.066406 -34.921875 62.929688 -36.796875 67.890625 -36.796875 C 72.847656 -36.796875 77.613281 -38.640625 82.1875 -42.328125 C 86.757812 -46.015625 89.679688 -50.335938 90.953125 -55.296875 L 100.6875 -92.484375 C 104.5 -107.359375 113.394531 -120.390625 127.375 -131.578125 C 121.144531 -137.546875 118.03125 -145.046875 118.03125 -154.078125 C 118.03125 -158.015625 118.601562 -162.273438 119.75 -166.859375 L 129.28125 -204.03125 C 129.664062 -205.5625 129.859375 -207.085938 129.859375 -208.609375 C 129.734375 -211.660156 128.78125 -214.457031 127 -217 C 124.195312 -220.8125 120.382812 -222.71875 115.5625 -222.71875 C 110.601562 -222.71875 106.722656 -224.5625 103.921875 -228.25 C 102.015625 -230.789062 101.0625 -233.648438 101.0625 -236.828125 C 101.0625 -238.234375 101.253906 -239.695312 101.640625 -241.21875 C 102.910156 -246.175781 105.894531 -250.53125 110.59375 -254.28125 C 115.300781 -258.03125 120.132812 -259.90625 125.09375 -259.90625 Z M 125.09375 -259.90625 "/></g></g><g clip-rule="nonzero" clip-path="url(#2c233b1cc6)"><path style=" stroke:none;fill-rule:nonzero;fill:#000000;fill-opacity:1;" d="M 187.238281 87.902344 C 175.121094 88.148438 165.421875 98.03125 165.421875 110.140625 C 165.421875 122.429688 175.378906 132.386719 187.679688 132.386719 C 199.980469 132.386719 209.933594 122.421875 209.933594 110.140625 C 209.941406 97.863281 199.980469 87.902344 187.683594 87.902344 C 187.53125 87.902344 187.390625 87.902344 187.238281 87.902344 Z M 120.417969 114.898438 C 117.566406 114.945312 114.761719 116.191406 112.820312 118.488281 C 112.027344 119.421875 111.445312 120.46875 111.050781 121.566406 C 110.660156 122.660156 110.484375 123.808594 110.488281 124.953125 C 110.488281 126.105469 110.6875 127.261719 111.085938 128.355469 C 111.484375 129.445312 112.078125 130.488281 112.871094 131.417969 C 113.238281 131.84375 113.621094 132.222656 114.035156 132.570312 C 114.472656 132.941406 114.917969 133.3125 115.390625 133.597656 C 115.390625 133.597656 115.394531 133.597656 115.398438 133.605469 C 128.730469 141.441406 142.976562 147.675781 157.800781 152.085938 C 159.996094 152.742188 162.230469 153.261719 164.457031 153.839844 L 164.457031 197.277344 C 160.394531 206.296875 156.519531 215.398438 152.941406 224.628906 C 147.03125 239.863281 141.867188 255.378906 137.324219 271.066406 C 137.320312 271.082031 137.320312 271.09375 137.316406 271.101562 L 137.296875 271.15625 C 137.28125 271.191406 137.257812 271.222656 137.246094 271.257812 C 137.246094 271.269531 137.246094 271.269531 137.246094 271.277344 C 135.261719 277.097656 138.390625 283.449219 144.214844 285.429688 C 150.039062 287.40625 156.382812 284.277344 158.363281 278.453125 C 158.457031 278.171875 158.5625 277.871094 158.636719 277.542969 C 163.015625 262.378906 168.066406 247.40625 173.765625 232.691406 C 176.570312 225.464844 179.59375 218.324219 182.714844 211.222656 L 192.648438 211.222656 C 195.765625 218.320312 198.796875 225.460938 201.59375 232.691406 C 207.300781 247.40625 212.347656 262.378906 216.71875 277.542969 C 216.800781 277.871094 216.894531 278.171875 216.996094 278.453125 C 218.972656 284.277344 225.320312 287.40625 231.148438 285.429688 C 236.972656 283.457031 240.09375 277.097656 238.117188 271.277344 C 238.117188 271.269531 238.117188 271.269531 238.117188 271.257812 C 238.101562 271.21875 238.082031 271.1875 238.066406 271.15625 L 238.042969 271.101562 C 238.039062 271.09375 238.039062 271.082031 238.035156 271.066406 C 233.492188 255.378906 228.332031 239.859375 222.417969 224.628906 C 218.847656 215.398438 214.96875 206.296875 210.902344 197.277344 L 210.902344 153.839844 C 213.128906 153.269531 215.355469 152.742188 217.5625 152.085938 C 232.382812 147.675781 246.636719 141.441406 259.96875 133.605469 L 259.96875 133.597656 C 260.441406 133.316406 260.890625 132.945312 261.324219 132.578125 C 261.742188 132.230469 262.121094 131.847656 262.492188 131.425781 C 263.28125 130.492188 263.878906 129.453125 264.273438 128.363281 C 264.675781 127.265625 264.871094 126.105469 264.871094 124.960938 C 264.875 123.816406 264.703125 122.675781 264.308594 121.574219 C 263.925781 120.46875 263.335938 119.421875 262.542969 118.488281 C 259.441406 114.820312 254.128906 113.808594 249.9375 116.167969 C 249.929688 116.167969 249.921875 116.175781 249.914062 116.183594 C 249.902344 116.191406 249.894531 116.199219 249.882812 116.203125 C 237.933594 123.238281 225.125 128.863281 211.828125 132.824219 C 205.914062 134.582031 199.890625 135.910156 193.828125 137.007812 L 181.535156 137.007812 C 175.472656 135.910156 169.445312 134.582031 163.535156 132.824219 C 150.230469 128.855469 137.433594 123.238281 125.476562 116.203125 C 125.46875 116.199219 125.457031 116.191406 125.449219 116.183594 C 125.441406 116.179688 125.433594 116.175781 125.421875 116.167969 C 123.855469 115.28125 122.128906 114.875 120.417969 114.898438 Z M 120.417969 114.898438 "/></g></g></svg>
